!!!!SEGMENT: pl-wn--mus-iii-63-986--001_zelenski-wladyslaw--deux-mazourkas-op-31-i.krn
!!!cenid: 18xx:3713
!!!COM: Żeleński, Władysław
!!!COM-rismid: pe41024455
!!!CDT:
!!!CNT:
!!!GTL: Deux Mazourkas op. 31
!!!OTL: I
!!!PDT: @SMS-siglum: PL-Wn
!!!AGN:
!!!SMS-shelfmark: Mus.III.63.986
!!!SMS-shelfwork: 001 G
!!!SMS-variant:
!!!SMS-altvar:
!!!NIFC-rismid:
!!!URL-scan: https://polona.pl/item/deux-mazourkas-pour-le-piano-op-31,NTE2MTI3MDU/1/#info:metadata
!!!ONB-nifc:
!!!key: c#
**kern	**fing	**kern	**fing	**dynam
*part1	*	*part1	*	*part1
*staff2	*	*staff1	*	*
*Ipiano	*	*Ipiano	*	*
*I"Piano	*	*I"Piano	*	*
*ICklav	*	*ICklav	*	*
*IGsolo	*	*IGsolo	*	*
*>[A,B,B,C,D,D1,D,D2,E]	*	*>[A,B,B,C,D,D1,D,D2,E]	*	*>[A,B,B,C,D,D1,D,D2,E]
*>A	*	*>A	*	*>A
*clefF4	*	*clefG2	*	*
*k[f#c#g#d#]	*	*k[f#c#g#d#]	*	*
*c#:	*	*c#:	*	*
*M3/4	*	*M3/4	*	*
=1	=1	=1	=1	=1
*ped	*	*	*	*
!	!	!LO:TX:a:B:t=Moderato.	!	!
4..C# 4..CC#/	.	2.r	.	p
([16GG#/	.	.	.	>
8.C#L 8.GG#] 8.CC#/)	.	.	.	.
([16GG#/Jk	.	.	.	.
=2	=2	=2	=2	=2
8.C#L 8.GG#] 8.CC#/)	.	2.r	.	.
([16GG#/Jk	.	.	.	.
4C# 4GG#] 4CC#/)	.	.	.	.
*Xped	*	*	*	*
4GG#'/	.	.	.	]
=3!|:	=3!|:	=3!|:	=3!|:	=3!|:
*>B	*	*>B	*	*>B
!LO:TX:b:i:t=con Ped.	!	!	!	!
4..C# 4..CC#/	.	[2.g# [2.e [2.G#/	.	.
(16GG#/	.	.	.	.
!LO:TX:b:i:t=un poco rilevato	!	!	!	!
8.C#L 8.GG# 8.CC#/)	.	.	.	.
([16GG#/Jk	.	.	.	.
=4	=4	=4	=4	=4
8.C#L 8.GG#] 8.CC#/)	.	2.g#] 2.e] 2.G#/]	.	.
(16GG#/Jk	.	.	.	.
4E^\)	.	.	.	.
4D# 4CC#'/	.	.	.	.
=5	=5	=5	=5	=5
4..C# 4..CC#/	.	[2.g# [2.e [2.G#/	.	.
([16GG#/	.	.	.	.
8.C#L 8.GG#] 8.CC#/)	.	.	.	.
([16GG#/Jk	.	.	.	.
=6	=6	=6	=6	=6
*	*	*^	*	*
8.C#L 8.GG#] 8.CC#/)	.	2g#_ 2e_ 2G#/_	2ryy	.	.
(16GG#/Jk	.	.	.	.	.
4BB'/)	.	.	.	.	.
4AA 4CC#'/	.	8.g#]L 8.G#/]	4e\]	.	.
.	.	16f#Jk 16F#/	.	.	.
*	*	*v	*v	*	*
!!LO:LB:g=original
=7	=7	=7	=7	=7
!	!	!	!	!LO:DY:a:t=poco sfz
4..D# 4..CC#/	.	(>2.f# 2.e 2.F#^/	.	sfz
([16AA/	.	.	.	.
8.D#L 8.AA] 8.CC#/)	.	.	.	<
([16AA/Jk	.	.	.	.
=8	=8	=8	=8	=8
8.D#L 8.AA] 8.CC#/)	.	2.a 2.f# 2.d# 2.A/)	.	[
!	!	!	!	!LO:HP:b=2
(16E/Jk	.	.	.	<
4.G#\	.	.	.	.
8F#\)	.	.	.	[
=9	=9	=9	=9	=9
8EL 8CC#/	.	[2.g# 2.f# 2.B#X [2.G#^/	.	.
(8F#~/J	.	.	.	>
4C#~/	.	.	.	.
4D#~/)	.	.	.	]
=10	=10	=10	=10	=10
4E 4CC#/	.	2g#] 2e 2c# 2G#/]	.	.
(8D#'/L	.	.	.	.
8C#'/	.	.	.	.
8BB'/	.	4r	.	.
8AA'/J)	.	.	.	.
=11	=11	=11	=11	=11
!	!	!LO:TX:b:i:t=dolcissimo	!	!
4..C# 4..CC#/	.	4r	.	.
!	!	!	!	!LO:HP:a
.	.	(4gg# 4ee 4g#\	.	>
([16GG#/	.	.	.	.
8.C#L 8.GG#] 8.CC#/)	.	4ff##X 4dd# 4f##X\	.	]
([16GG#/Jk	.	.	.	.
=12	=12	=12	=12	=12
8.C#L 8.GG#] 8.CC#/)	.	2gg# 2ee 2g#\)	.	.
!	!	!	!	!LO:HP:b=2
(<16GG#'/Jk	.	.	.	<
4E\)	.	.	.	[
4D# 4CC#'/	.	4r	.	.
!!LO:LB:g=original
=13	=13	=13	=13	=13
4..C# 4..CC#/	.	4r	.	.
!	!	!	!	!LO:HP:a
.	.	(>4ee 4g# 4e/	.	>
([16GG#/	.	.	.	.
8.C#L 8.GG#] 8.CC#/)	.	4dd# 4f##X 4d#/	.	]
([16GG#/Jk	.	.	.	.
=14	=14	=14	=14	=14
*	*	*^	*	*
8.C#L 8.GG#] 8.CC#/)	.	[2ee [<2e/	2.g#\	.	<
(16GG#/Jk	.	.	.	.	.
4BB/)	.	.	.	.	.
4AA 4CC#'/	.	8ee]L 8e/]	.	.	.
.	.	8dd#J 8d#/)	.	.	[[
*	*	*v	*v	*	*
=15	=15	=15	=15	=15
4..D# 4..CC#/	.	(>[2.cc# [2.f# [2.c#/	.	.
([16AA/	.	.	.	.
!	!	!	!	!LO:HP:b=2
8.D#L 8.AA] 8.CC#/)	.	.	.	<
(>([16AA/Jk	.	.	.	.
=16	=16	=16	=16	=16
8.D#L) 8.AA] 8.CC#/)	.	4cc#] 4f#] 4c#/]	.	.
(16E/Jk	.	.	.	.
4.G#\	.	4b 4B/	.	.
.	.	4a 4A/)	.	.
8F#\)	.	.	.	[[
=17	=17	=17	=17	=17
*^	*	*	*	*
!	!	!	!	!	!LO:HP:b=2
8.D#/L	4CC#\	.	[2.g# 2.f# 2.B#X [2.G#/	.	>
(<16F#/k	.	.	.	.	.
8.E/)	2ryy	.	.	.	.
(16GG#/k	.	.	.	.	.
8.D#/)	.	.	.	.	.
(16E/Jk	.	.	.	.	.
*v	*v	*	*	*	*
=18	=18	=18	=18	=18
4C#/)	.	2.g#] 2.e 2.c# 2.G#/]	.	]
8.r	.	.	.	.
(16GG#/	.	.	.	.
4CC#/)	.	.	.	.
!!LO:LB:g=original
=19:|!	=19:|!	=19:|!	=19:|!	=19:|!
*>C	*	*>C	*	*>C
*ped	*	*	*	*
!	!	!LO:TX:a:i:t=un poco più vivo	!	!LO:DY:rj
4GG#/	.	8d#/	.	p
!	!	!LO:TX:b:i:t=grazioso	!	!
.	.	8r	.	.
(4B 4G# 4D#'\	.	[2g#^/	.	.
4B 4G# 4D#'\)	.	.	.	.
=20	=20	=20	=20	=20
*Xped	*	*	*	*
4GG#/	.	8g#/L]	.	.
.	.	(8b'/	.	.
(4c# 4G# 4E'\	.	8a#X'/	.	.
.	.	8g#'/	.	.
4c# 4A#X 4E'\)	.	8f#'/	.	.
.	.	8e'/J	.	.
=21	=21	=21	=21	=21
*ped	*	*	*	*
4GG#/	.	4.d#/)	.	.
4B 4D#\	.	.	.	.
*Xped	*	*	*	*
.	.	(<8b/L	.	.
4c# 4D#\	.	8a#X/	.	.
.	.	8f##X/J	.	.
=22	=22	=22	=22	=22
*ped	*	*	*	*
4GG#/	.	8.g#\L)	.	.
.	.	(16ee\Jk	.	.
4B 4D#\	.	2dd#\)	.	.
4B 4D#\	.	.	.	.
*Xped	*	*	*	*
=23	=23	=23	=23	=23
*	*	*^	*	*
4CC#/	.	[2.gg#/	(12dd#\L	3 5	.
.	.	.	12ee\	.	.
.	.	.	12dd#\J	.	.
4e 4c# 4G#\	.	.	8cc#\L	.	.
.	.	.	8g#\	.	.
4c# 4G# 4E\	.	.	8a#X\	.	.
.	.	.	8b\J	.	.
=24	=24	=24	=24	=24	=24
*ped	*	*	*	*	*
4DD#/	.	4.gg#/]	8.cc#\L)	.	.
.	.	.	(>16d#\Jk	.	.
*	*	*	*	*below	*
4d# 4B 4G#\	.	.	([2b\)	2_1	.
.	.	(8dd#/L	.	.	.
4B 4G# 4D#\	.	8ff#/	.	.	.
*Xped	*	*	*	*	*
.	.	8ee/J	.	.	.
!!LO:LB:g=original
=25	=25	=25	=25	=25	=25
*^	*	*	*	*	*
*	*	*	*Xtuplet	*	*	*
4EE/	4ryy	.	12dd#/L	4b\]	.	.
.	.	.	12ee/	.	.	.
.	.	.	12dd#/J	.	.	.
!LO:N:vis=2	!	!	!	!	!	!LO:HP:b=2
8E/L	2E\	.	[2cc##X/	8a#X\L	.	<
8A#X/	.	.	.	8f##X\	.	.
8c#/	.	.	.	8a#\	.	.
8B/J	.	.	.	8g#\J)	.	.
*v	*v	*	*	*	*	*
=26	=26	=26	=26	=26	=26
4DD#/	.	8.cc##/L])	(4.g#\	.	[
.	.	(16aa#X/Jk	.	.	.
*ped	*	*	*	*	*
!	!	!LO:N:acc=n#	!	!	!LO:HP:b=2
2c# 2D#\	.	[2cc#X/)	.	.	>
.	.	.	8f##X\L	.	.
.	.	.	8a#X\	.	.
.	.	.	8e\J	.	.
*Xped	*	*	*	*	*
=27	=27	=27	=27	=27	=27
*^	*	*	*	*	*
!LO:N:vis=2	!	!	!	!	!	!
4GG#/	2.GG#\	.	4cc#/]	8d#\)	.	]
.	.	.	.	8rc	.	p
(4B 4D#'/	.	.	(8bM/L	[2g#\	.	.
.	.	.	8a#X/	.	.	.
4B 4D#'/)	.	.	8b/	.	.	.
.	.	.	8cc#/J	.	.	.
=28	=28	=28	=28	=28	=28	=28
!LO:N:vis=2	!	!	!	!	!	!
4GG#/	2.GG#\	.	8dd#/)	8g#'\L]	.	.
.	.	.	8raa	(8b'\	.	.
(4G# 4E'/	.	.	(2cc##X^/	8a#X'\	.	.
.	.	.	.	8g#'\	.	.
4A#X 4E'/)	.	.	.	8f#'\	.	.
.	.	.	.	8e'\J	.	.
=29	=29	=29	=29	=29	=29	=29
!LO:N:vis=2	!	!	!	!	!	!
4GG#/	2.GG#\	.	8.dd#/L)	4.d#\)	.	.
.	.	.	(16gg#/Jk	.	.	.
(4B 4D#'/	.	.	[2dd#^/)	.	.	.
.	.	.	.	(8b\L	.	.
4c# 4D#'/)	.	.	.	8a#X\	.	.
.	.	.	.	8f##X\J	.	.
!!LO:PB:g=original
=30	=30	=30	=30	=30	=30	=30
!	!	!	!LO:TX:t=P:problem:brak zakończenia ligatury i łuku	!	!	!
(<8GG#/L	4GG#\	.	4dd#/]	8.g#\L)	.	.
8D#/	.	.	.	.	.	.
.	.	.	.	(>16ee\Jk	.	<
8G#/	2ryy	.	8cc#/L	[>2dd#\)	.	.
8B/	.	.	&(<8b/	.	.	.
8c#/	.	.	8a#X/	.	.	.
8d#/J)	.	.	8g#/J	.	.	[
*v	*v	*	*	*	*	*
*clefG2	*	*	*	*	*
=31	=31	=31	=31	=31	=31
*	*	*	*tuplet	*	*
!	!	!	!	!	!LO:HP:t=cresc. poco a poco
(4.B/	.	(2gg#/	12dd#\L]&)	.	<
.	.	.	12ee\	.	.
.	.	.	12dd#\J	.	.
.	.	.	[2cc#\	.	.
8b/L	.	.	.	.	.
8an/	.	8ff#/L	.	.	.
8g#/J	.	8gg#/J	.	.	.
=32	=32	=32	=32	=32	=32
*^	*	*	*	*	*
8.f#/L)	4ryy	.	[2aa/	12cc#\L]	.	.
.	.	.	.	12dd#\	.	.
.	.	.	.	12cc#\J	.	.
(>[16B/Jk	.	.	.	.	.	.
4f# 4d#/	2B\]	.	.	4b\	.	.
4g# 4e/)	.	.	8aa/L]	4cc#\	.	.
.	.	.	8gg#/J)	.	.	.
*v	*v	*	*	*	*	*
=33	=33	=33	=33	=33	=33
(4.B/	.	(2gg#/	12dd#\L	.	.
.	.	.	12ee\	.	.
.	.	.	12dd#\J	.	.
.	.	.	2cc#\	.	.
8b/L	.	.	.	.	.
8a/	.	8ff#/L	.	.	.
8g#/J	.	8gg#/J	.	.	.
=34	=34	=34	=34	=34	=34
*^	*	*	*	*	*
8f#/)	8ryy	.	2aa/	12dd#\L	.	<
.	.	.	.	12ee\	.	.
4B/	[8B\	.	.	.	.	.
.	.	.	.	12dd#\J	.	.
.	2B\_	.	.	2cc#\	.	.
8gn/L	.	.	.	.	.	.
8f#/	.	.	4aa#X\)	.	.	.
8e/J	.	.	.	.	.	[
*v	*v	*	*	*	*	*
*	*	*v	*v	*	*
!!LO:LB:g=original
=35	=35	=35	=35	=35
*	*	*	*above	*
8f# 8B/]	.	(4.ccc# 4.ee\	1 2	sfz
(8B/L	.	.	.	.
8a/	.	.	.	.
8f#/	.	8aaL 8cc#\	2 5	.
8d#/	.	8ff# 8a\	1 4	.
8c#/J	.	8eeJ 8a#X\	2 5	.
*clefF4	*	*	*	*
=36	=36	=36	=36	=36
*	*	*^	*	*
8B\L	.	8dd#L 8b/	4.ryy	2 4	>
8A\	.	8cc# 8d#/	.	1 5	.
8G#\	.	8b 8e/	.	2 5	.
*	*	*	*	*below	*
[<8BB\J	.	8B/	4.B\	1	.
*	*	*	*	*above	*
4A 4BB\])	.	8e 8c#/	.	2 3	.
.	.	8f#J 8d#/)	.	2 4	]
*	*	*v	*v	*	*
=37!|:	=37!|:	=37!|:	=37!|:	=37!|:
*>D	*	*>D	*	*>D
*ped	*	*	*	*
!	!	!LO:TX:a:i:t=risoluto	!	!
4EE/	.	8g# 8e 8G#/	.	.
.	.	8r	.	.
4G# 4BB\	.	[2b [2B^/	.	.
4G# 4BB\	.	.	.	.
=38	=38	=38	=38	=38
*	*	*^	*	*
*Xped	*	*	*	*	*
8.EE/L	.	2.b_ 2.B/_<	8.rg	.	.
(16BB/Jk	.	.	(>16c#\	.	.
4A'\	.	.	4d#'>\	.	.
4G#'\)	.	.	4e'>\)	.	.
*	*	*v	*v	*	*
=39	=39	=39	=39	=39
4EE/	.	8b]L 8B/]	.	.
.	.	(>8cc#J 8c#/	.	.
4F# 4AA#X/	.	4ff# 4f#/)	.	<
4F# 4AA#/	.	8eeL 8e/	.	[
.	.	8cc#J 8c#/	.	.
=40	=40	=40	=40	=40
*	*	*^	*	*
*ped	*	*	*	*	*
8.EE/L	.	[2.b [<2.B/	8.rg	.	.
(16BB/Jk	.	.	(>16c#\	2	.
*Xped	*	*	*	*	*
4F#'\	.	.	4a 4d#\	2 4	.
4E'\)	.	.	4g# 4e\)	2 3	.
*	*	*v	*v	*	*
!!LO:LB:g=original
=41	=41	=41	=41	=41
4EE/	.	4.b] 4.B/]	.	.
[2c# [2F# [2E^\	.	.	.	.
.	.	(8f#/L	.	.
.	.	8g# 8G#/)	.	.
.	.	8bJ 8B/	.	<
=42	=42	=42	=42	=42
*^	*	*	*	*
8c#]L 8F#] 8E\]	4ryy	.	4.a 4.A/	.	.
16r	.	.	.	.	.
[16C#\Jk	.	.	.	.	.
2C#\]	(4G# 4BB'/	.	.	.	.
.	.	.	(8cc#L 8c#/	.	.
.	4F# 4AA'/)	.	8dd# 8d#/)	.	.
.	.	.	8eeJ 8e/	.	[
*v	*v	*	*	*	*
=43	=43	=43	=43	=43
4EE/	.	4.dd# 4.d#/	.	<
[2a [2d# [2B^\	.	.	.	.
.	.	(8b/L	.	.
.	.	8cc# 8c#/)	.	.
.	.	8eeJ 8e/	.	.
=44	=44	=44	=44	=44
*^	*	*	*	*
8a]L 8d#] 8B/]	4ryy	.	4.dd# 4.d#/	.	.
16r	.	.	.	.	.
[16A/Jk	.	.	.	.	.
(2A/]	4c# 4E'>\	.	.	.	.
.	.	.	(8ff#L 8f#\	.	.
.	4B 4D#'>\)	.	8gg# 8g#\)	.	.
.	.	.	8aaJ 8a\	.	.
*v	*v	*	*	*	*
=45	=45	=45	=45	=45
8r	.	8gg# 8g#\	.	pp
(8E\L	.	8r	.	.
8B\)	.	[2bb [2b^\	.	.
8g#'\	.	.	.	.
8f#'\	.	.	.	.
8e'\J	.	.	.	.
!!LO:LB:g=original
=46	=46	=46	=46	=46
*	*	*^	*	*
8.E\L	.	2.bb_ 2.b/_<	8.rff	.	.
*	*below	*	*	*	*
(16B\Jk	5	.	(>16cc#\	.	.
4a\	.	.	4dd#'>\	.	.
8g#'\L	.	.	4ee'>\)	.	.
8f#'\J)	.	.	.	.	.
*	*	*v	*v	*	*
=47	=47	=47	=47	=47
8e'\L	.	8.bb]L 8.b\]	.	.
!	!	!	!	!LO:HP:b=2
(8E\	.	.	.	<
.	.	(16ccc#Jk 16cc#\	.	<
8A#X\)	.	4fff# 4ff#\)	.	[
8g#'\	.	.	.	.
8f#'\	.	8eeeL 8ee\	.	.
8e'\J	.	8ccc#J 8cc#\	.	.
=48	=48	=48	=48	=48
*	*	*^	*	*
8.B\L	.	2.bb 2.b/	8.rff	.	.
(16E\Jk	.	.	(>16cc#\	.	.
4f#'\	.	.	4aa 4dd#'>\	.	.
4e'\)	.	.	4gg# 4ee'>\)	.	.
=49	=49	=49	=49	=49	=49
*ped	*	*	*	*	*
4CC#/	.	[4bb [<4b\	8.ree	.	f
.	.	.	(16ff#/	.	.
2e: 2B: 2G#: 2C#:\	.	8bb]L 8b\]	2ee/)	.	.
*Xped	*	*	*	*	*
.	.	8aa 8a\	.	.	.
.	.	8gg# 8g#\	.	.	.
.	.	8bbJ 8b\	.	.	.
=50	=50	=50	=50	=50	=50
*ped	*	*	*	*	*
4FF#/	.	[4aa [<4a\	8.rdd	.	.
.	.	.	16ee/	.	.
2d#: 2A: 2F#: 2C#:\	.	8aa]L 8a\]	2dd#/	.	.
*Xped	*	*	*	*	*
.	.	8ff# 8f#'\	.	.	.
.	.	8ee 8e'\	.	.	.
.	.	8dd#J 8d#'\	.	.	.
*	*	*v	*v	*	*
!!LO:LB:g=original
=51	=51	=51	=51	=51
*^	*	*	*	*
!LO:TX:b:i:t=simili	!	!	!LO:TX:b:i:t=con espress.	!	!
4GG# 4GGG#/	4ryy	.	8.gg#L 8.g#/	.	.
.	.	.	16dd#Jk 16d#/	.	.
(4e:/	2G#: 2F#: 2BB#X:\	.	[2gg# [2g#\	.	.
4d#/)	.	.	.	.	.
=52	=52	=52	=52	=52	=52
4AA#X 4AAA#X/	4ryy	.	4.gg#] 4.g#\]	.	.
(4d#:/	2F#: 2E: 2AA#:\	.	.	.	.
.	.	.	(8ff#L 8f#/	.	.
4c#/)	.	.	8ee 8e/	.	.
.	.	.	8cc#J 8c#/)	.	.
=53	=53	=53	=53	=53	=53
4BBB/	4ryy	.	8.bL 8.B/	.	f
!	!	!	!LO:TX:b:i:t=con vigore	!	!
.	.	.	(16bJk 16B/	.	.
(4G#/	[2BB\	.	4ee 4e/)	.	.
4F##X/	.	.	(8dd#L 8d#/	.	.
.	.	.	8cc#J 8c#/	.	.
=54	=54	=54	=54	=54	=54
4G#/	2.BB\]	.	8.bL 8.B/)	.	.
.	.	.	(16bJk 16B/	.	.
4F#X/	.	.	4.ddn 4.dn/)	.	.
4E#X/)	.	.	.	.	.
.	.	.	[8g# [8G#/	.	.
=55	=55	=55	=55	=55	=55
!	!	!	!	!	!LO:HP:b=2
(4.F#/	[2.BB\	.	8g#]L 8G#/]	.	>
.	.	.	8aJ 8A/	.	.
.	.	.	[2cc# [2c#/	.	.
8E#X/L	.	.	.	.	.
8F#/	.	.	.	.	.
8G#/J	.	.	.	.	.
=56	=56	=56	=56	=56	=56
!!LO:TX:a:B:t=1.
*>D1	*>D1	*>D1	*>D1	*>D1	*>D1
2A/)	2BB\]	.	8.cc#]L 8.c#/]	.	]
.	.	.	(16d#/Jk	.	.
!	!LO:TX:b:i:t=poco rit.	!	!	!	!
.	.	.	4b 4B/)	.	p
[4BB/	4ryy	.	[4f##X 4d# [4A^/	.	.
!!LO:LB:g=original
=57:|!	=57:|!	=57:|!	=57:|!	=57:|!	=57:|!
!!LO:TX:a:B:t=2.
*>D2	*>D2	*	*>D2	*	*>D2
*	*	*	*^	*	*
8.A/L	2.BB\	.	8.cc#L 8.c#/	4ryy	.	.
(16F#/Jk	.	.	(>[16d#/Jk	.	.	p
4c#/	.	.	4a/	2d#\]	.	.
8B/L	.	.	8g#/L	.	.	.
8A/J	.	.	8f#/J	.	.	.
*v	*v	*	*	*	*	*
*	*	*v	*v	*	*
=58	=58	=58	=58	=58
*>E	*>E	*>E	*>E	*>E
4EE/)	.	8g# 8e 8G#/)	.	.
.	.	8r	.	.
4G# 4BB\	.	2b 2B^/	.	.
4G# 4BB\	.	.	.	.
=59	=59	=59	=59	=59
*	*	*^	*	*
8.EE/L	.	[2.b [<2.B/	8.rf	.	.
(16BB/Jk	.	.	(>16c#\	.	.
4A\	.	.	4d#'>\	.	.
4G#'\)	.	.	4e'>\)	.	.
*	*	*v	*v	*	*
=60	=60	=60	=60	=60
4EE/	.	8b]L 8B/]	.	.
.	.	(8cc#J 8c#/	.	.
!	!	!	!	!LO:HP:b=2
4F# 4AA#X/	.	4ff# 4f#/)	.	<
4F# 4AA#/	.	8eeL 8e/	.	.
.	.	8cc#J 8c#/	.	.
=61	=61	=61	=61	=61
*	*	*^	*	*
*	*	*	*^	*	*
8.EE/L	.	[2.b [<2.B/	4ryy	8.rf	.	[
!	!	!	!	!	!	!LO:HP:b=2
(16BB/Jk	.	.	.	(>[16d#\	.	>
4B\	.	.	4g#/	2d#\]	.	.
4A'\)	.	.	4f#/)	.	.	.
*	*	*v	*v	*	*	*
*	*	*v	*v	*	*
=62	=62	=62	=62	=62
8G# 8E\	.	8b] 8e 8B/]	.	]
8r	.	8r	.	.
!	!	!LO:TX:t=P:problem:brak początku ligatur	!	!
4r	.	[2b [2B^/	.	.
(4D# 4DD#/	.	.	.	p
!!LO:PB:g=original
=63	=63	=63	=63	=63
2C# 2CC#/)	.	8.b]L 8.B/]	.	.
.	.	(16e/Jk	.	.
.	.	4a 4A'/	.	.
[4BB [4BBB/	.	4g# 4G#'/)	.	.
*	*	*clefF4	*	*
=64	=64	=64	=64	=64
2BB] 2BBB/]	.	8c# 8C#\	.	.
.	.	8r	.	.
!	!	!	!	!LO:HP:t=diminuendo
.	.	[2f# [2F#^\	.	>
(4AA 4AAA/	.	.	.	.
=65	=65	=65	=65	=65
2GG# 2GGG#/)	.	8.f#]L 8.F#\]	.	.
.	.	(16B\Jk	.	.
.	.	4e 4E\	.	.
[4FF# [4FFF#/	.	4dn 4Dn'\)	.	.
=66	=66	=66	=66	=66
2FF#] 2FFF#/]	.	8G# 8GG#/	.	.
.	.	8r	.	.
.	.	[2c# [2C#^\	.	.
(4EE 4EEE/	.	.	.	.
=67	=67	=67	=67	=67
2DD# 2DDD#/	.	8.c#]L 8.C#\]	.	.
.	.	(16F#\Jk	.	.
.	.	4B 4BB\	.	.
4CC# 4CCC#/)	.	4A 4AA'\)	.	.
=68	=68	=68	=68	=68
*ped	*	*	*	*
[2.BBB#X [2.BBBB#X/	.	4..G# 4..GG#/	.	.
.	.	(>[16D#/	.	.
.	.	8.G#L 8.D#] 8.GG#/)	.	.
.	.	(>[16D#/Jk	.	.
=69	=69	=69	=69	=69
4..BBB#] 4..BBBB#/]	.	[2.G# 2.D#_ [2.GG#/)	.	.
([16DD#/KL	.	.	.	.
8.GG# 8.DD#] 8.GGG#/)	.	.	.	.
*Xped	*	*	*	*
(([16DD#/Jk	.	.	.	.
!!LO:LB:g=original
=70	=70	=70	=70	=70
[2.GG# 2.DD#_ [2.GGG#/))	.	4..G#] 4..D#] 4..GG#/]	.	.
*	*	*clefG2	*	*
.	.	(>[16d#/	.	.
.	.	8.g#L 8.d#] 8.G#/)	.	.
.	.	(>[16d#/Jk	.	.
=71	=71	=71	=71	=71
2.GG#] 2.DD#] 2.GGG#;/]	.	2.g# 2.d#] 2.G#;/)	.	.
=72||	=72||	=72||	=72||	=72||
!LO:TX:b:i:t=con Ped.	!	!LO:TX:a:i:t=a tempo	!	!
4..C# 4..CC#/	.	[2.g# [2.e [2.G#/	.	pp
([16GG#/	.	.	.	.
8.C#L 8.GG#] 8.CC#/)	.	.	.	.
(>[16GG#/Jk	.	.	.	.
=73	=73	=73	=73	=73
8.C#L 8.GG#] 8.CC#/)	.	2.g#] 2.e] 2.G#/]	.	.
!	!	!	!	!LO:HP:b=2
(16GG#/Jk	.	.	.	<
4E\)	.	.	.	[
4D# 4CC#'/	.	.	.	.
=74	=74	=74	=74	=74
4..C# 4..CC#/	.	[2.g# [2.e [2.G#/	.	.
([16GG#/	.	.	.	.
8.C#L 8.GG#] 8.CC#/)	.	.	.	.
(>[16GG#/Jk	.	.	.	.
=75	=75	=75	=75	=75
*	*	*^	*	*
8.C#L 8.GG#] 8.CC#/)	.	2g#_ 2e_ 2G#/_	2ryy	.	.
(16GG#/Jk	.	.	.	.	.
4BB/)	.	.	.	.	.
4AA 4CC#'/	.	8g#]L 8G#/]	4e\]	.	.
.	.	8f#J 8F#/	.	.	.
*	*	*v	*v	*	*
=76	=76	=76	=76	=76
4..D# 4..CC#^/	.	(>2.f# 2.e 2.F#^/	.	.
(>[16AA/	.	.	.	<
8.D#L 8.AA] 8.CC#/)	.	.	.	.
(>[16AA/Jk	.	.	.	[[
!!LO:LB:g=original
=77	=77	=77	=77	=77
8.D#L 8.AA] 8.CC#/)	.	2.a 2.f# 2.d# 2.A/)	.	.
!	!	!	!	!LO:HP:b=2
(16E/Jk	.	.	.	>
4.G#\	.	.	.	.
8F#\)	.	.	.	]]
=78	=78	=78	=78	=78
*^	*	*	*	*
8E^/L	4CC#\	.	[2.g# 2.f# 2.B#X [2.G#/	.	.
(<8F#~</J	.	.	.	.	.
4C#~/	2ryy	.	.	.	>
4D#~/)	.	.	.	.	.
*v	*v	*	*	*	*
=79	=79	=79	=79	=79
4E 4CC#/	.	2g#] 2e 2c# 2G#/]	.	]
(8D#'/L	.	.	.	.
8C#'/	.	.	.	.
8BB'/	.	4r	.	.
8AA'/J)	.	.	.	.
=80	=80	=80	=80	=80
4..C# 4..CC#/	.	4r	.	.
!	!	!LO:TX:b:i:t=dolcissimo	!	!LO:HP:a
.	.	(4gg# 4ee 4g#\	.	>
(>[16GG#/	.	.	.	.
8.C#L 8.GG#] 8.CC#/)	.	4ff##X 4dd# 4f##X\	.	.
([16GG#/Jk	.	.	.	.
=81	=81	=81	=81	=81
8.C#L 8.GG#] 8.CC#/)	.	2gg# 2ee 2g#\)	.	]
!	!	!	!	!LO:HP:b=2
(16GG#/Jk	.	.	.	<
4E\)	.	.	.	[
4D# 4CC#'/	.	4r	.	.
=82	=82	=82	=82	=82
4..C# 4..CC#/	.	4r	.	.
.	.	(>4ee 4g# 4e/	.	.
([16GG#/	.	.	.	.
8.C#L 8.GG#] 8.CC#/)	.	4dd# 4f##X 4d#/	.	.
([16GG#/Jk	.	.	.	.
!!LO:LB:g=original
=83	=83	=83	=83	=83
*	*	*^	*	*
8.C#L 8.GG#] 8.CC#/))	.	[2ee [2e/)	2.g#\	.	<
(16GG#/Jk	.	.	.	.	.
4BB/)	.	.	.	.	.
4AA 4CC#'/	.	8ee]L 8e/]	.	.	.
.	.	8dd#J 8d#/	.	.	[
*	*	*v	*v	*	*
=84	=84	=84	=84	=84
!	!	!	!	!LO:DY:a
4..D# 4..CC#/	.	(>[2.cc# [2.f# [2.c#/	.	sfz
([16AA/	.	.	.	.
8.D#L 8.AA] 8.CC#/)	.	.	.	<
([16AA/Jk	.	.	.	.
=85	=85	=85	=85	=85
8.D#L 8.AA] 8.CC#/)	.	4cc#] 4f#] 4c#/]	.	.
(16E/Jk	.	.	.	.
4.G#\	.	4b 4B/	.	.
.	.	4a 4A/)	.	[
8F#\)	.	.	.	.
=86	=86	=86	=86	=86
8.D#L 8.CC#/	.	[2.g# 2.f# 2.B#X 2.G#/	.	>
(16F#/k	.	.	.	.
8.E/)	.	.	.	.
(16GG#/k	.	.	.	.
8.D#/)	.	.	.	.
(16E/Jk	.	.	.	.
=87	=87	=87	=87	=87
4..C#/)	.	2.g#_ [2.e [2.c# [2.G#/	.	]
([16GG#/	.	.	.	.
8.C#L 8.GG#] 8.CC#/)	.	.	.	.
([16GG#/Jk	.	.	.	.
=88	=88	=88	=88	=88
8.C#L 8.GG#] 8.CC#/)	.	2.g#] 2.e] 2.c#] 2.G#/]	.	.
([16GG#/Jk	.	.	.	.
4C# 4GG#] 4CC#/)	.	.	.	.
4BB 4BBB'/	.	.	.	.
*	*	*clefF4	*	*
!!LO:LB:g=original
=89	=89	=89	=89	=89
4..AA 4..AAA/	.	(2.c# 2.F# 2.C#\	.	.
([16DD#/	.	.	.	.
8.AAL 8.DD#] 8.AAA/)	.	.	.	.
([16DD#/Jk	.	.	.	.
=90	=90	=90	=90	=90
8.AAL 8.DD#] 8.AAA/)	.	2.d# 2.B#X 2.F# 2.D#\)	.	.
([16DD#/Jk	.	.	.	.
4AA 4DD#] 4AAA/)	.	.	.	.
4GG# 4GGG#'/	.	.	.	.
=91	=91	=91	=91	=91
4..GGn 4..GGGn/	.	(2.e 2.cn 2.Gn 2.E\	.	.
(16AAA/	.	.	.	.
8.GGL 8.GGG/)	.	.	.	.
(16AAA/Jk	.	.	.	.
=92	=92	=92	=92	=92
8.GGnL 8.GGGn/)	.	2.B 2.Fn 2.BB\)	.	.
([16DDn/Jk	.	.	.	.
4AA 4DD] 4AAA/)	.	.	.	.
4GG 4GGG'/	.	.	.	.
=93	=93	=93	=93	=93
4..FF# 4..FFF#/	.	[2.B#X 2.A 2.D# [2.BB#X\	.	pp
([16BBB#X/	.	.	.	.
8.FF#L 8.BBB#] 8.FFF#/)	.	.	.	.
([16BBB#/Jk	.	.	.	.
=94	=94	=94	=94	=94
*	*	*^	*	*
!	!	!LO:TX:b:i:t=poco riten.	!	!	!
8.EEL 8.BBB#] 8.EEE/)	.	2.B#] 2.G# 2.BB#/]	2E\	.	.
(16GGG#/Jk	.	.	.	.	.
4EE 4GGG# 4EEE/)	.	.	.	.	.
4DD# 4DDD#'/	.	.	4F#\	.	.
*	*	*v	*v	*	*
=95	=95	=95	=95	=95
!	!	!LO:TX:a:i:t=a tempo	!	!
4..CC# 4..CCC#/	.	4..c# 4..G# 4..E 4..C#\	.	p
!	!	!LO:TX:b:i:t=semplice	!	!
([16GG#/	.	([16G#\	.	.
8.C#L 8.GG#] 8.CC#/)	.	8.c#L 8.G#] 8.E\)	.	.
([16GG#/Jk	.	([16G#\Jk	.	.
!!LO:LB:g=original
=96	=96	=96	=96	=96
8.C#L 8.GG#] 8.CC#/)	.	8.c#L 8.G#] 8.E\)	.	.
!	!	!	!	!LO:HP:b=2
(>[16GG#/Jk	.	([16G#\Jk	.	<
4E 4GG#/])	.	4e 4G#\])	.	[
4D# 4GG#'/	.	4d# 4G#'\	.	.
=97	=97	=97	=97	=97
4..C# 4..CC#/	.	4..c# 4..E\	.	.
(>[16GG#/	.	([16G#\	.	.
8.C#L 8.GG#] 8.CC#/)	.	8.c#L 8.G#] 8.E\)	.	.
(([16GG#/Jk	.	([16G#\Jk	.	.
=98	=98	=98	=98	=98
8.C#L 8.GG#] 8.CC#/))	.	8.c#L 8.G#] 8.E\)	.	>
(16GG#/Jk	.	(16G#\Jk	.	.
4BB/)	.	4B\)	.	.
4AA 4EE 4CC#'/	.	4A 4E 4C#'\	.	]]
=99	=99	=99	=99	=99
!	!	!	!	!LO:HP:t=dimin.
4.GG# 4.EE 4.CC#/	.	4..G# 4..E 4..C#\	.	>
16ryy	.	.	.	.
(>[16EE/	.	([16E\	.	.
8.AAL 8.EE] 8.CC#/)	.	8.AL 8.E] 8.C#\)	.	.
[16EE/Jk	.	([16E\Jk	.	.
=100	=100	=100	=100	=100
!	!	!LO:TX:b:i:t=rall.	!	!
4..GG# 4..EE] 4..CC#/	.	4..G# 4..E] 4..C#\)	.	.
(>[16EE/	.	([16E\	.	.
8.AAL 8.EE] 8.CC#/)	.	8.AL 8.E] 8.C#\)	.	.
(>[16EE/Jk	.	([16E\Jk	.	.
=101	=101	=101	=101	=101
4GG# 4EE] 4CC#/)	.	4G# 4E] 4C#\)	.	.
2r	.	2r	.	.
=102	=102	=102	=102	=102
*ped	*	*	*	*
2.GG# 2.CC#;/	.	2.G# 2.E 2.C#;\	.	ppp
*Xped	*	*	*	*
==	==	==	==	==
*-	*-	*-	*-	*-
!!!system-decoration: {(s1,s2)}
!!!RDF**kern: > = above
!!!RDF**kern: < = below
!!!ENC: Arek Malec
!!!END: 2022-03-18
!!!AIN: 1 piano
!!!ENC: Marta Lawrence
!!!END: 2022-03-21
